packages/merlin-www-assets/imports/houseandgarden/icons/cta-close.svg

<svg viewBox="0 0 20 20" xmlns="http://www.w3.org/2000/svg"><path d="m20 .9-.9-.9-9.1 9.1-9.1-9.1-.9.9 9.1 9.1-9.1 9.1.9.9 9.1-9.1 9.1 9.1.9-.9-9.1-9.1z"/></svg>

<svg xmlns="http://www.w3.org/2000/svg" viewBox="0 0 20 20"><title>cta-close</title><path d="M20,.9,19.1,0,10,9.1.9,0,0,.9,9.1,10,0,19.1l.9.9L10,10.9,19.1,20l.9-.9L10.9,10,20,.9"/></svg>
